modules/zondicons/icons/color-palette.svg

<?xml version="1.0" encoding="UTF-8" standalone="no"?>
<svg width="20px" height="20px" viewBox="0 0 20 20" version="1.1" xmlns="http://www.w3.org/2000/svg" xmlns:xlink="http://www.w3.org/1999/xlink">
    <!-- Generator: Sketch 3.7.2 (28276) - http://www.bohemiancoding.com/sketch -->
    <title>color-palette</title>
    <desc>Created with Sketch.</desc>
    <defs></defs>
    <g id="Page-1" stroke="none" stroke-width="1" fill="none" fill-rule="evenodd">
        <g id="color-palette" fill="#000000">
            <path d="M9,20 L18.0092049,20 C19.1017876,20 20,19.1054196 20,18.0018986 L20,13.9981014 C20,12.8867064 19.1086907,12 18.0092049,12 L15.0710678,12 L9.01026535,18.0608025 C9.00998975,18.139716 9.00652788,18.217877 9,18.2951708 L9,20 Z M9,16.6568542 L16.7344309,8.92242337 C17.5070036,8.14985069 17.5095717,6.88215473 16.7292646,6.10184761 L13.8981524,3.27073539 C13.1122774,2.48486045 11.8550305,2.48811526 11.0775766,3.26556912 L9,5.34314575 L9,16.6568542 Z M0,1.99079514 C0,0.891309342 0.886706352,0 1.99810135,0 L6.00189865,0 C7.10541955,0 8,0.898212381 8,1.99079514 L8,18.0092049 C8,19.1086907 7.11329365,20 6.00189865,20 L1.99810135,20 C0.894580447,20 0,19.1017876 0,18.0092049 L0,1.99079514 Z M4,17 C4.55228475,17 5,16.5522847 5,16 C5,15.4477153 4.55228475,15 4,15 C3.44771525,15 3,15.4477153 3,16 C3,16.5522847 3.44771525,17 4,17 Z" id="Combined-Shape"></path>
        </g>
    </g>
</svg>

<svg width="20" height="20" viewBox="0 0 20 20" xmlns="http://www.w3.org/2000/svg"><path d="M9 20h9.01c1.092 0 1.99-.895 1.99-1.998v-4.004A1.99 1.99 0 0 0 18.01 12H15.07l-6.06 6.06c-.001.08-.004.158-.011.235V20zm0-3.343l7.734-7.735a1.999 1.999 0 0 0-.005-2.82L13.9 3.27a1.99 1.99 0 0 0-2.821-.005L9 5.343v11.314zM0 1.99C0 .89.887 0 1.998 0h4.004C7.105 0 8 .898 8 1.99v16.02C8 19.108 7.113 20 6.002 20H1.998A1.999 1.999 0 0 1 0 18.01V1.99zM4 17a1 1 0 1 0 0-2 1 1 0 0 0 0 2z" fill="#000" fill-rule="evenodd"/></svg>
